X:6404
T:T\'a Dh\'a Ghabhair\'in Bhu\'i Agam
T:I Have Two Yellow Goats
O:england
R:polka
D:Begley & Cooney: Meitheal
D:Michael Tubridy: The Eagle's Whistle
M:2/4
L:1/8
K:G
D>E GA|B2 AG|BA AG/A/|BA Bd|D>E GA|B2 AB/A/|GE ED/E/|1 GE EG:|2 GE Ed||
|:ed eg|d2 c>B|BA AB|cA Ad|ed eg|d2 c>B|BG G>A|1 BG Gd:|2 BG GE||
